src/assets/filled/TextalignCenter.svg

<svg width="24" height="24" viewBox="0 0 24 24"  xmlns="http://www.w3.org/2000/svg">
<path d="M21 5.25H3C2.59 5.25 2.25 4.91 2.25 4.5C2.25 4.09 2.59 3.75 3 3.75H21C21.41 3.75 21.75 4.09 21.75 4.5C21.75 4.91 21.41 5.25 21 5.25Z" />
<path d="M16.74 10.25H7.26001C6.85001 10.25 6.51001 9.91 6.51001 9.5C6.51001 9.09 6.85001 8.75 7.26001 8.75H16.73C17.14 8.75 17.48 9.09 17.48 9.5C17.48 9.91 17.15 10.25 16.74 10.25Z" />
<path d="M21 15.25H3C2.59 15.25 2.25 14.91 2.25 14.5C2.25 14.09 2.59 13.75 3 13.75H21C21.41 13.75 21.75 14.09 21.75 14.5C21.75 14.91 21.41 15.25 21 15.25Z" />
<path d="M16.74 20.25H7.26001C6.85001 20.25 6.51001 19.91 6.51001 19.5C6.51001 19.09 6.85001 18.75 7.26001 18.75H16.73C17.14 18.75 17.48 19.09 17.48 19.5C17.48 19.91 17.15 20.25 16.74 20.25Z" />
</svg>

<?xml version="1.0" encoding="UTF-8"?>
<svg width="24" height="24" viewBox="0 0 24 24" xmlns="http://www.w3.org/2000/svg">
 <path d="m21 5.25h-18c-0.41 0-0.75-0.34-0.75-0.75s0.34-0.75 0.75-0.75h18c0.41 0 0.75 0.34 0.75 0.75s-0.34 0.75-0.75 0.75z"/>
 <path d="m16.74 10.25h-9.48c-0.41 0-0.75-0.34-0.75-0.75s0.34-0.75 0.75-0.75h9.47c0.41 0 0.75 0.34 0.75 0.75s-0.33 0.75-0.74 0.75z"/>
 <path d="m21 15.25h-18c-0.41 0-0.75-0.34-0.75-0.75s0.34-0.75 0.75-0.75h18c0.41 0 0.75 0.34 0.75 0.75s-0.34 0.75-0.75 0.75z"/>
 <path d="m16.74 20.25h-9.48c-0.41 0-0.75-0.34-0.75-0.75s0.34-0.75 0.75-0.75h9.47c0.41 0 0.75 0.34 0.75 0.75s-0.33 0.75-0.74 0.75z"/>
</svg>
